<?xml version="1.0" encoding="UTF-8"?>
<map version="1.10" tiledversion="1.11.2" orientation="orthogonal" renderorder="right-down" width="64" height="32" tilewidth="32" tileheight="32" infinite="0" nextlayerid="6" nextobjectid="373">
 <tileset firstgid="1" source="basic_joe_tiles.tsx"/>
 <layer id="1" name="sand" width="64" height="32">
  <data encoding="csv">
41,41,41,41,41,41,41,41,41,41,35,35,35,35,35,35,35,35,35,35,35,35,35,35,35,35,35,35,35,35,35,35,35,35,35,31,31,31,31,31,31,31,35,35,35,35,35,35,35,35,35,35,35,35,35,35,35,35,35,35,35,35,35,35,
41,41,41,41,41,41,41,41,41,41,35,35,35,35,35,35,35,35,35,34,34,34,34,34,34,34,34,35,35,35,35,35,35,35,35,31,31,31,31,31,31,31,35,35,35,35,35,35,31,31,31,31,35,35,35,35,35,35,35,35,35,35,35,35,
41,41,41,41,41,41,41,41,41,35,35,35,35,35,35,35,35,35,35,34,34,34,34,32,32,32,32,32,32,35,35,35,35,35,35,35,35,35,35,35,35,35,35,35,35,35,35,35,35,35,35,35,35,35,35,35,35,35,35,35,35,35,35,35,
41,41,41,41,41,41,41,41,35,35,35,32,32,32,32,32,35,35,35,34,34,34,34,32,32,32,32,32,32,35,35,33,33,33,33,33,33,33,33,33,33,33,33,33,41,41,41,33,33,33,35,35,35,35,35,35,35,35,35,35,35,35,35,35,
41,41,41,41,41,41,41,35,35,35,35,32,32,32,32,32,35,35,35,34,34,34,34,34,34,34,34,35,35,35,35,33,33,33,33,33,33,33,33,33,33,33,33,41,41,42,42,42,33,33,35,35,35,35,35,35,35,35,35,35,35,35,35,35,
41,41,41,41,41,41,35,35,35,35,35,32,32,32,32,32,35,35,35,34,34,34,34,34,34,34,34,34,34,34,34,33,33,33,33,33,33,33,33,33,33,33,33,41,41,42,42,42,41,33,35,35,35,35,35,35,35,35,35,35,35,35,35,35,
41,41,41,41,35,35,35,35,35,35,35,35,35,35,35,35,35,35,35,34,34,34,34,33,33,33,33,34,34,34,34,33,33,33,33,33,33,33,33,33,33,33,33,33,41,41,42,41,41,33,34,34,34,34,35,35,35,35,35,35,35,35,35,35,
41,41,41,35,35,35,35,35,35,35,35,35,35,35,35,33,33,33,33,33,33,31,32,31,32,31,32,34,34,34,34,33,33,33,33,33,33,33,33,33,33,33,33,31,32,31,32,33,33,33,34,34,34,34,35,35,31,31,35,35,35,35,35,35,
35,35,35,35,35,35,35,35,35,35,35,35,35,35,35,33,33,33,33,33,33,33,33,33,33,33,33,34,34,34,34,34,34,34,34,34,34,33,33,33,33,33,33,31,32,31,32,34,34,34,34,34,34,34,35,35,31,31,35,35,35,35,35,35,
35,35,35,35,35,35,35,35,35,35,35,35,35,35,35,33,33,33,33,33,33,33,33,33,33,33,33,34,34,34,34,34,34,34,34,34,34,33,33,33,33,33,33,31,32,31,32,34,34,34,34,34,34,34,35,35,35,35,35,35,35,35,35,35,
35,35,35,35,35,35,35,35,35,35,35,35,35,35,35,33,33,33,33,33,33,33,33,33,33,33,33,34,34,34,34,33,33,33,33,33,34,33,33,33,33,33,33,33,33,33,33,34,34,34,34,34,34,34,35,35,35,35,35,35,35,35,35,35,
35,35,35,35,35,35,35,35,35,35,34,34,34,34,34,33,33,33,33,33,33,33,33,33,33,33,33,34,34,34,34,33,33,33,33,33,34,33,33,33,33,33,33,33,33,33,33,35,35,35,35,35,35,35,35,35,35,35,35,35,35,35,35,35,
35,35,35,31,31,31,35,35,35,35,34,34,34,31,32,31,33,33,33,33,33,33,33,33,33,33,33,34,34,41,41,41,41,41,41,33,34,33,33,33,33,33,33,33,33,33,33,33,33,33,33,33,33,34,34,34,34,35,35,35,35,35,35,35,
35,35,35,31,31,31,35,35,35,35,34,34,34,31,32,31,33,33,33,33,33,33,33,33,33,33,33,34,41,41,41,42,42,42,42,41,34,33,33,33,33,33,33,33,33,33,33,33,33,33,33,33,33,34,34,34,34,35,35,35,35,35,35,35,
35,35,35,31,31,31,35,35,35,35,34,34,34,34,34,33,33,33,33,33,33,33,33,33,33,33,34,34,41,41,42,42,42,42,42,41,34,33,33,33,33,33,33,33,33,31,32,31,33,33,33,33,33,34,34,34,34,35,35,35,35,35,35,35,
35,35,35,31,31,31,35,35,35,35,34,34,34,34,34,33,33,33,33,33,33,33,33,33,33,33,33,33,41,41,42,42,42,42,42,41,34,34,34,34,34,34,33,33,33,31,32,31,33,33,33,33,33,34,34,34,34,35,35,35,35,35,35,35,
35,35,35,35,35,35,35,35,35,35,34,34,34,34,34,34,34,34,34,34,33,33,33,33,33,33,33,33,33,41,41,41,41,41,34,34,34,34,34,34,34,34,33,33,33,31,32,31,33,33,33,33,33,34,34,34,34,31,31,31,31,35,35,35,
35,35,35,35,35,35,35,35,35,35,34,34,34,34,34,34,34,34,34,34,33,31,32,33,33,33,33,33,33,33,33,33,33,33,35,35,35,35,35,34,34,34,33,33,33,31,32,31,33,33,33,33,33,34,34,34,34,31,31,31,31,35,41,41,
35,35,35,35,35,35,35,35,35,35,34,34,34,34,34,34,34,34,34,34,33,31,32,33,33,33,33,33,33,33,33,33,33,33,35,35,35,35,35,34,34,34,33,33,33,33,33,33,33,33,33,33,33,34,34,34,34,31,31,41,41,41,42,42,
35,35,35,35,35,35,35,35,35,35,34,34,34,34,34,34,34,34,34,34,33,33,33,33,33,33,33,33,33,33,33,33,33,33,35,35,35,35,35,34,34,34,33,33,33,33,33,33,33,33,33,33,33,34,34,34,34,31,42,42,42,42,42,42,
35,35,35,35,31,31,31,35,35,35,34,34,34,34,41,41,41,41,34,34,33,33,33,33,33,33,33,33,33,33,33,33,33,33,35,35,35,35,35,34,34,34,34,34,34,34,34,34,34,34,34,34,34,34,34,42,42,42,41,41,41,41,42,42,
35,35,35,35,31,31,31,35,35,35,34,34,34,41,41,41,41,42,42,34,33,33,33,33,33,33,33,33,33,33,33,33,33,33,35,35,35,35,35,34,34,34,34,34,34,34,34,34,34,34,34,34,34,34,41,41,41,41,41,41,41,41,41,41,
35,35,35,35,31,31,31,35,35,35,34,34,41,41,41,42,42,42,42,34,33,33,33,33,33,33,33,33,33,33,33,33,31,32,31,32,31,32,31,32,31,34,34,34,34,34,34,34,34,34,34,34,42,42,41,41,41,41,41,41,41,41,41,41,
35,35,35,35,35,35,35,35,35,35,35,41,41,41,42,42,42,42,42,35,33,33,33,33,33,33,33,33,33,33,33,33,31,32,31,32,31,32,31,32,31,34,34,34,34,34,34,34,34,34,42,42,42,42,41,41,41,41,41,41,41,41,41,41,
35,35,35,35,35,35,35,35,35,35,35,35,35,41,42,42,42,42,35,35,35,35,35,35,34,34,34,34,34,34,34,34,34,34,34,34,34,34,35,34,34,34,34,34,34,34,34,34,34,34,42,42,42,42,42,42,42,41,41,41,41,41,41,41,
35,35,35,35,35,35,35,35,35,35,35,35,35,35,35,35,35,35,35,35,35,35,35,35,34,34,34,34,34,34,34,34,34,34,34,34,34,34,35,35,35,35,35,35,35,35,35,35,35,41,41,42,41,41,41,42,42,41,41,41,41,41,41,41,
35,35,35,35,35,35,35,35,35,35,35,35,35,35,35,35,35,35,35,35,35,35,35,35,35,35,35,35,35,35,35,35,35,35,35,35,35,35,35,35,35,35,35,35,35,35,35,35,41,41,41,42,42,42,42,41,41,41,41,41,41,41,41,41,
35,35,35,35,35,35,35,31,31,31,31,35,35,35,35,35,35,35,35,35,35,35,32,32,32,32,32,35,35,35,35,35,35,35,35,35,35,35,35,35,35,35,35,35,35,35,35,41,41,41,41,42,42,42,42,41,41,41,41,41,41,41,42,42,
35,35,35,35,35,35,35,31,31,31,31,35,35,35,35,35,35,35,35,35,35,35,32,32,32,32,32,35,35,35,35,35,35,35,35,35,35,35,35,35,35,35,35,35,31,31,41,41,41,41,41,42,42,42,42,41,41,41,41,41,41,41,42,42,
35,35,35,35,35,35,35,31,31,31,31,35,35,35,35,35,35,35,35,35,35,35,32,32,32,32,32,35,35,35,35,35,35,35,35,35,35,35,35,35,35,35,35,35,31,42,42,42,42,42,42,42,42,42,42,42,42,42,42,42,42,42,42,42,
35,35,35,35,35,35,35,35,35,35,35,35,35,35,35,35,35,35,35,35,35,35,35,35,35,35,35,35,35,35,35,35,35,35,35,35,35,35,35,35,35,35,35,35,41,41,41,41,41,41,41,42,42,42,41,41,41,41,42,42,42,42,42,42,
35,35,35,35,35,35,35,35,35,35,35,35,35,35,35,35,35,35,35,35,35,35,35,35,35,35,35,35,35,35,35,35,35,35,35,35,35,35,35,35,35,35,35,42,42,42,42,41,41,41,41,42,42,42,41,41,41,41,42,42,42,42,42,42
</data>
 </layer>
 <layer id="2" name="walls" width="64" height="32">
  <data encoding="csv">
57,57,57,57,57,57,57,57,57,57,57,57,57,57,57,57,57,57,57,57,57,57,57,57,57,57,57,57,57,57,57,57,57,57,57,57,57,57,57,57,57,57,57,57,57,57,57,57,57,57,57,57,57,57,57,57,57,57,57,57,57,57,57,57,
57,0,0,0,0,0,0,0,0,0,0,0,0,0,0,0,0,0,0,0,0,0,0,0,0,0,0,0,0,0,0,0,0,0,0,0,0,0,0,0,0,0,0,0,0,0,0,0,0,0,0,0,0,0,0,0,0,0,0,0,0,0,0,56,
57,0,0,0,0,0,0,0,0,0,0,0,0,0,0,0,0,0,0,0,0,0,0,0,0,0,0,0,0,0,0,0,0,0,0,0,0,0,0,0,0,0,0,0,0,0,0,0,0,0,0,0,0,0,0,0,0,0,0,0,0,0,0,57,
57,0,0,0,0,0,0,0,0,0,0,0,0,0,0,0,0,0,0,0,0,0,0,0,0,0,0,0,0,0,0,0,0,0,0,0,0,0,0,0,0,0,0,0,0,0,0,0,0,0,0,0,0,0,0,0,0,0,0,0,0,0,0,57,
57,0,0,0,0,0,0,0,0,0,0,0,0,0,0,0,0,0,0,0,0,0,0,0,0,0,0,0,0,0,0,0,0,0,0,0,0,0,0,0,0,0,0,0,0,0,0,0,0,0,0,0,0,0,0,0,0,0,0,0,0,0,0,56,
57,0,0,0,0,0,0,0,0,0,0,0,0,0,0,0,0,0,0,0,0,0,0,0,0,0,0,0,0,0,0,0,0,0,0,0,0,0,0,0,0,0,0,0,0,0,0,0,0,0,0,0,0,0,0,0,0,0,0,0,0,0,0,56,
57,0,0,0,0,0,0,0,0,0,0,0,0,0,0,0,0,0,0,0,0,0,0,0,0,0,0,0,0,0,0,0,0,0,0,0,0,0,0,0,0,0,0,0,0,0,0,0,0,0,0,0,0,0,0,0,0,0,0,0,0,0,0,56,
57,0,0,0,0,0,0,0,0,0,0,0,0,0,0,0,0,0,0,0,0,0,0,0,0,0,0,0,0,0,0,0,0,0,0,0,0,0,0,0,0,0,0,0,0,0,0,0,0,0,0,0,0,0,0,0,0,0,0,0,0,0,0,57,
57,0,0,0,0,0,0,0,0,0,0,0,0,0,0,0,0,0,0,0,0,0,0,0,0,0,0,0,0,0,0,0,0,0,0,0,0,0,0,0,0,0,0,0,0,0,0,0,0,0,0,0,0,0,0,0,0,0,0,0,0,0,0,56,
57,0,0,0,0,0,0,0,0,0,0,0,0,0,0,0,0,0,0,0,0,0,0,0,0,0,0,0,0,0,0,0,0,0,0,0,0,0,0,0,0,0,0,0,0,0,0,0,0,0,0,0,0,0,0,0,0,0,0,0,0,0,0,57,
57,0,0,0,0,0,0,0,0,0,0,0,0,0,0,0,0,0,0,0,0,0,0,0,0,0,0,0,0,0,0,0,0,0,0,0,0,0,0,0,0,0,0,0,0,0,0,0,0,0,0,0,0,0,0,0,0,0,0,0,0,0,0,57,
57,0,0,0,0,0,0,0,0,0,0,0,0,0,0,0,0,0,0,0,0,0,0,0,0,0,0,0,0,0,0,0,0,0,0,0,0,0,0,0,0,0,0,0,0,0,0,0,0,0,0,0,0,0,0,0,0,0,0,0,0,0,0,57,
57,0,0,0,0,0,0,0,0,0,0,0,0,0,0,0,0,0,0,0,0,0,0,0,0,0,0,0,0,0,0,0,0,0,0,0,0,0,0,0,0,0,0,0,0,0,0,0,0,0,0,0,0,0,0,0,0,0,0,0,0,0,0,57,
57,0,0,0,0,0,0,0,0,0,0,0,0,0,0,0,0,0,0,0,0,0,0,0,0,0,0,0,0,0,0,0,0,0,0,0,0,0,0,0,0,0,0,0,0,0,0,0,0,0,0,0,0,0,0,0,0,0,0,0,0,0,0,57,
57,0,0,0,0,0,0,0,0,0,0,0,0,0,0,0,0,0,0,0,0,0,0,0,0,0,0,0,0,0,0,0,0,0,0,0,0,0,0,0,0,0,0,0,0,0,0,0,0,0,0,0,0,0,0,0,0,0,0,0,0,0,0,57,
57,0,0,0,0,0,0,0,0,0,0,0,0,0,0,0,0,0,0,0,0,0,0,0,0,0,0,0,0,0,0,0,0,0,0,0,0,0,0,0,0,0,0,0,0,0,0,0,0,0,0,0,0,0,0,0,0,0,0,0,0,0,0,57,
57,0,0,0,0,0,0,0,0,0,0,0,0,0,0,0,0,0,0,0,0,0,0,0,0,0,0,0,0,0,0,0,0,0,0,0,0,0,0,0,0,0,0,0,0,0,0,0,0,0,0,0,0,0,0,0,0,0,0,0,0,0,0,56,
57,0,0,0,0,0,0,0,0,0,0,0,0,0,0,0,0,0,0,0,0,0,0,0,0,0,0,0,0,0,0,0,0,0,0,0,0,0,0,0,0,0,0,0,0,0,0,0,0,0,0,0,0,0,0,0,0,0,0,0,0,0,0,56,
57,0,0,0,0,0,0,0,0,0,0,0,0,0,0,0,0,0,0,0,0,0,0,0,0,0,0,0,0,0,0,0,0,0,0,0,0,0,0,0,0,0,0,0,0,0,0,0,0,0,0,0,0,0,0,0,0,0,0,0,0,0,0,56,
57,0,0,0,0,0,0,0,0,0,0,0,0,0,0,0,0,0,0,0,0,0,0,0,0,0,0,0,0,0,0,0,0,0,0,0,0,0,0,0,0,0,0,0,0,0,0,0,0,0,0,0,0,0,0,0,0,0,0,0,0,0,0,56,
57,0,0,0,0,0,0,0,0,0,0,0,0,0,0,0,0,0,0,0,0,0,0,0,0,0,0,0,0,0,0,0,0,0,0,0,0,0,0,0,0,0,0,0,0,0,0,0,0,0,0,0,0,0,0,0,0,0,0,0,0,0,0,56,
57,0,0,0,0,0,0,0,0,0,0,0,0,0,0,0,0,0,0,0,0,0,0,0,0,0,0,0,0,0,0,0,0,0,0,0,0,0,0,0,0,0,0,0,0,0,0,0,0,0,0,0,0,0,0,0,0,0,0,0,0,0,0,56,
57,0,0,0,0,0,0,0,0,0,0,0,0,0,0,0,0,0,0,0,0,0,0,0,0,0,0,0,0,0,0,0,0,0,0,0,0,0,0,0,0,0,0,0,0,0,0,0,0,0,0,0,0,0,0,0,0,0,0,0,0,0,0,57,
57,0,0,0,0,0,0,0,0,0,0,0,0,0,0,0,0,0,0,0,0,0,0,0,0,0,0,0,0,0,0,0,0,0,0,0,0,0,0,0,0,0,0,0,0,0,0,0,0,0,0,0,0,0,0,0,0,0,0,0,0,0,0,57,
57,0,0,0,0,0,0,0,0,0,0,0,0,0,0,0,0,0,0,0,0,0,0,0,0,0,0,0,0,0,0,0,0,0,0,0,0,0,0,0,0,0,0,0,0,0,0,0,0,0,0,0,0,0,0,0,0,0,0,0,0,0,0,57,
57,0,0,0,0,0,0,0,0,0,0,0,0,0,0,0,0,0,0,0,0,0,0,0,0,0,0,0,0,0,0,0,0,0,0,0,0,0,0,0,0,0,0,0,0,0,0,0,0,0,0,0,0,0,0,0,0,0,0,0,0,0,0,57,
57,0,0,0,0,0,0,0,0,0,0,0,0,0,0,0,0,0,0,0,0,0,0,0,0,0,0,0,0,0,0,0,0,0,0,0,0,0,0,0,0,0,0,0,0,0,0,0,0,0,0,0,0,0,0,0,0,0,0,0,0,0,0,57,
57,0,0,0,0,0,0,0,0,0,0,0,0,0,0,0,0,0,0,0,0,0,0,0,0,0,0,0,0,0,0,0,0,0,0,0,0,0,0,0,0,0,0,0,0,0,0,0,0,0,0,0,0,0,0,0,0,0,0,0,0,0,0,57,
57,0,0,0,0,0,0,0,0,0,0,0,0,0,0,0,0,0,0,0,0,0,0,0,0,0,0,0,0,0,0,0,0,0,0,0,0,0,0,0,0,0,0,0,0,0,0,0,0,0,0,0,0,0,0,0,0,0,0,0,0,0,0,57,
57,0,0,0,0,0,0,0,0,0,0,0,0,0,0,0,0,0,0,0,0,0,0,0,0,0,0,0,0,0,0,0,0,0,0,0,0,0,0,0,0,0,0,0,0,0,0,0,0,0,0,0,0,0,0,0,0,0,0,0,0,0,0,56,
57,0,0,0,0,0,0,0,0,0,0,0,0,0,0,0,0,0,0,0,0,0,0,0,0,0,0,0,0,0,0,0,0,0,0,0,0,0,0,0,0,0,0,0,0,0,0,0,0,0,0,0,0,0,0,0,0,0,0,0,0,0,0,56,
57,57,57,57,57,57,57,57,57,57,57,57,57,57,57,57,57,57,57,57,57,57,57,57,57,57,57,57,57,57,57,57,57,57,57,57,57,57,57,57,57,57,57,57,57,57,57,57,57,57,57,57,57,57,57,57,57,57,57,57,57,57,57,56
</data>
 </layer>
 <layer id="3" name="box" width="64" height="32">
  <data encoding="csv">
0,0,0,0,0,0,0,0,0,0,0,0,0,0,0,0,0,0,0,0,0,0,0,0,0,0,0,0,0,0,0,0,0,0,0,0,0,0,0,0,0,0,0,0,0,0,0,0,0,0,0,0,0,0,0,0,0,0,0,0,0,0,0,0,
0,0,0,0,0,0,0,0,0,0,0,0,0,0,0,0,0,0,0,0,0,0,0,0,0,0,0,0,0,0,0,0,0,0,0,0,0,0,0,0,0,0,0,0,0,0,0,0,0,0,0,0,0,0,0,0,0,0,0,0,0,0,0,0,
0,0,0,0,0,0,0,0,0,0,0,0,0,0,0,0,0,0,0,0,0,0,0,0,0,0,0,0,0,0,0,0,0,0,0,0,0,0,0,0,0,0,0,0,0,0,0,0,0,0,0,0,0,0,0,0,0,0,0,0,0,0,0,0,
0,0,0,0,0,0,0,0,0,0,0,0,0,0,0,0,0,0,0,0,0,0,0,0,0,0,0,0,0,0,0,0,0,0,0,0,13,13,0,0,0,0,0,0,0,0,0,0,0,0,0,0,0,0,0,0,0,0,0,0,0,0,0,0,
0,0,0,0,0,0,0,0,0,0,0,0,0,0,0,0,0,0,0,0,0,0,0,0,0,0,0,0,0,0,0,0,0,0,0,0,13,13,0,0,0,0,0,0,0,50,47,0,0,0,0,0,0,0,0,0,0,0,0,0,0,0,0,0,
0,0,0,0,0,0,0,0,0,0,0,0,0,0,0,0,0,0,0,0,0,0,0,0,0,0,0,0,0,0,0,0,0,0,0,0,0,0,0,0,0,0,0,0,0,49,58,0,0,0,0,0,0,0,0,0,0,0,0,0,0,0,0,0,
0,0,0,0,0,0,0,0,0,0,0,0,0,0,0,0,0,0,0,0,0,0,0,0,0,0,0,0,0,0,11,0,0,0,0,0,0,0,0,0,0,0,0,0,0,0,0,0,0,0,0,0,0,0,0,0,0,0,0,0,0,0,0,0,
0,0,0,0,0,0,0,0,0,0,0,0,0,0,0,0,0,0,0,0,0,0,0,0,0,0,14,11,11,11,14,14,0,0,0,0,0,0,0,0,0,0,0,0,0,0,0,0,0,0,0,0,0,0,0,0,0,0,0,0,0,0,0,0,
0,0,0,0,0,0,0,0,0,0,0,0,0,0,0,0,0,0,0,0,0,0,0,0,0,14,14,14,15,15,15,14,0,0,0,0,0,0,0,0,0,0,0,0,0,0,0,0,0,0,0,56,56,0,0,0,0,0,0,0,0,0,0,0,
0,0,0,0,0,0,0,0,0,0,0,0,0,0,0,0,0,0,0,0,57,57,57,0,0,14,15,15,15,0,0,0,0,0,0,0,0,11,11,0,0,0,0,0,0,0,0,0,0,0,0,56,56,56,56,0,0,0,0,0,0,0,0,0,
0,0,0,0,0,0,0,0,0,0,0,0,0,0,0,0,0,0,0,0,57,55,57,0,0,0,0,0,0,0,0,0,0,0,0,0,0,15,15,11,0,0,0,0,0,0,0,0,0,0,0,57,57,55,57,0,0,0,0,0,0,0,0,0,
0,0,0,0,0,0,0,0,0,0,0,0,0,13,13,0,0,0,0,0,0,57,57,0,0,0,0,0,0,0,0,0,0,0,0,0,0,0,15,11,0,0,0,0,0,0,0,0,0,0,0,44,57,57,57,0,0,0,0,0,0,0,0,0,
0,0,0,0,0,0,0,0,0,0,0,0,0,13,13,0,0,0,0,0,0,0,0,0,0,0,0,0,0,0,0,0,0,0,0,0,0,0,15,15,0,0,0,0,0,0,0,0,0,0,0,0,44,44,44,0,0,0,0,0,0,0,0,0,
0,0,0,0,0,0,0,0,0,0,0,0,0,0,0,0,0,0,0,0,0,0,0,0,0,0,0,0,0,0,58,48,49,0,0,0,0,0,0,0,0,0,0,0,0,0,0,0,0,0,0,0,0,0,0,0,0,0,0,0,0,0,0,0,
0,0,0,0,0,0,0,0,0,0,0,0,0,0,0,0,0,0,0,0,0,0,0,11,11,0,0,0,0,0,47,48,50,0,0,0,0,0,0,0,0,0,0,0,0,0,0,0,0,0,0,0,0,0,0,0,0,0,0,0,0,0,0,0,
0,0,0,0,0,0,0,0,0,0,0,0,0,0,0,0,0,0,0,0,0,0,14,11,15,0,0,0,0,0,0,0,0,0,0,0,0,0,0,0,0,14,15,11,0,0,0,0,0,0,0,0,0,0,0,0,0,0,0,0,0,0,0,0,
0,0,0,0,0,0,0,0,0,0,0,0,0,0,0,0,0,0,0,0,0,0,13,15,15,0,0,0,0,0,0,0,0,0,0,0,0,0,0,0,0,14,14,11,0,0,0,0,0,0,0,0,0,0,0,0,0,0,0,0,0,0,0,0,
0,0,0,0,0,0,0,0,0,0,0,0,0,0,0,0,0,0,0,0,0,0,44,13,13,0,0,0,0,0,0,0,0,0,0,0,0,0,0,0,0,14,14,44,0,0,0,0,0,0,0,0,0,0,0,0,0,0,0,0,0,0,0,0,
0,0,0,0,0,0,0,0,0,0,0,0,0,57,57,0,0,0,0,0,0,0,0,0,0,0,0,0,0,0,0,0,0,0,0,0,0,0,0,0,0,11,14,0,0,0,0,0,0,0,0,0,0,0,0,0,0,0,0,0,0,0,0,0,
0,0,0,0,0,0,0,0,0,0,0,0,0,44,57,0,0,0,0,0,0,0,0,0,0,0,0,0,0,0,0,0,0,0,0,0,0,0,0,0,0,11,44,0,0,0,0,0,0,0,0,0,0,0,0,0,0,0,0,0,0,0,0,0,
0,0,0,0,0,0,0,0,0,0,0,0,56,57,0,0,0,0,0,0,0,0,0,0,0,0,0,0,0,0,11,11,11,0,0,0,0,0,0,0,0,0,0,0,0,0,0,0,0,0,0,0,0,0,0,0,0,0,0,0,0,0,0,0,
0,0,0,0,0,0,0,0,0,0,0,0,0,0,0,0,0,0,0,0,0,0,0,0,0,0,0,0,0,0,14,14,14,11,0,0,0,0,0,0,0,0,0,0,0,0,0,0,0,0,0,0,0,0,0,0,0,0,0,0,0,0,0,0,
0,0,0,0,0,0,0,0,0,0,0,0,0,0,46,45,47,0,0,0,0,0,0,0,0,0,0,0,0,0,13,13,13,44,0,0,0,0,0,0,0,0,0,0,0,0,0,0,0,0,0,0,0,0,0,0,0,0,0,0,0,0,0,0,
0,0,0,0,0,0,0,0,0,0,0,0,0,0,47,49,58,0,0,0,0,0,0,0,0,0,0,0,0,0,0,0,0,0,0,0,0,0,0,0,0,0,0,0,0,13,13,0,0,0,0,0,0,0,0,0,0,0,0,58,49,58,49,0,
0,0,0,0,0,0,0,0,0,0,0,0,0,0,0,0,0,0,0,0,0,0,0,0,0,0,0,0,0,0,0,0,0,0,0,0,0,0,0,0,0,0,0,0,0,13,13,0,0,0,0,0,0,0,0,0,0,0,0,48,48,48,48,0,
0,0,0,0,0,0,0,0,0,0,0,0,0,0,0,0,0,0,0,0,0,0,0,0,0,0,0,0,0,0,0,57,57,0,0,0,0,0,0,0,0,0,0,0,0,0,0,0,0,0,0,0,0,0,0,0,0,0,0,47,48,48,48,0,
0,0,0,0,0,0,0,0,0,0,0,0,0,0,0,0,0,0,0,0,0,0,0,0,0,0,0,0,0,0,56,57,57,0,0,0,0,0,0,0,0,0,0,0,0,0,0,0,0,0,0,0,0,0,0,0,0,0,0,0,47,48,48,0,
0,0,0,0,0,0,0,0,0,0,0,0,0,0,0,0,0,0,0,0,0,0,0,0,0,0,0,0,0,0,56,56,57,0,0,13,13,0,0,0,0,0,0,0,0,0,0,0,0,0,0,0,0,0,0,0,0,0,0,0,42,47,50,0,
0,0,0,0,0,0,0,0,0,0,0,0,0,0,0,0,0,0,0,0,0,0,0,0,0,0,0,0,0,55,55,56,0,0,0,13,13,0,0,0,0,0,0,0,0,0,0,0,0,0,0,0,0,0,0,0,58,48,48,49,42,0,0,0,
0,0,0,0,0,0,0,0,0,0,0,0,0,0,0,0,0,0,0,0,0,0,0,0,0,0,0,0,0,56,56,0,0,0,0,0,0,0,0,0,0,0,0,0,0,0,0,0,0,0,0,0,0,0,46,46,50,47,50,47,49,0,0,0,
0,0,0,0,0,0,0,0,0,0,0,0,0,0,0,0,0,0,0,0,0,0,0,0,0,0,0,0,0,0,0,0,0,0,0,0,0,0,0,0,0,0,0,0,0,0,0,0,0,0,0,0,0,45,47,50,47,49,46,58,50,0,0,0,
0,0,0,0,0,0,0,0,0,0,0,0,0,0,0,0,0,0,0,0,0,0,0,0,0,0,0,0,0,0,0,0,0,0,0,0,0,0,0,0,0,0,0,0,0,0,0,0,0,0,0,0,0,0,0,0,0,0,0,0,0,0,0,0
</data>
 </layer>
 <objectgroup id="4" name="grass">
  <object id="1" gid="54" x="1038.25" y="492.25" width="32" height="32"/>
  <object id="2" gid="54" x="1007.75" y="495.5" width="32" height="32"/>
  <object id="3" gid="54" x="978.75" y="496.25" width="32" height="32"/>
  <object id="4" gid="53" x="959.5" y="495" width="32" height="32"/>
  <object id="5" gid="53" x="946.5" y="487.25" width="32" height="32"/>
  <object id="6" gid="53" x="938.5" y="476.25" width="32" height="32"/>
  <object id="7" gid="52" x="1038.5" y="477" width="32" height="32"/>
  <object id="8" gid="54" x="1046.75" y="461.75" width="32" height="32"/>
  <object id="9" gid="54" x="1033.5" y="430.75" width="32" height="32"/>
  <object id="10" gid="53" x="1042.25" y="446" width="32" height="32"/>
  <object id="11" gid="51" x="1019.25" y="431" width="32" height="32"/>
  <object id="12" gid="54" x="1002.5" y="425.5" width="32" height="32"/>
  <object id="13" gid="53" x="988" y="432.75" width="32" height="32"/>
  <object id="14" gid="52" x="970.5" y="430.5" width="32" height="32"/>
  <object id="15" gid="54" x="954" y="433.75" width="32" height="32"/>
  <object id="16" gid="54" x="927" y="512.5" width="32" height="32"/>
  <object id="17" gid="54" x="891" y="479" width="32" height="32"/>
  <object id="18" gid="53" x="950.75" y="535" width="32" height="32"/>
  <object id="19" gid="53" x="963.5" y="512" width="32" height="32"/>
  <object id="20" gid="54" x="1009" y="542.25" width="32" height="32"/>
  <object id="21" gid="54" x="1027.25" y="523.25" width="32" height="32"/>
  <object id="22" gid="53" x="1125.75" y="512.25" width="32" height="32"/>
  <object id="23" gid="53" x="1106.75" y="480" width="32" height="32"/>
  <object id="24" gid="54" x="1080.75" y="506" width="32" height="32"/>
  <object id="25" gid="54" x="1096.5" y="453.75" width="32" height="32"/>
  <object id="26" gid="53" x="1070" y="418.75" width="32" height="32"/>
  <object id="27" gid="54" x="1039.75" y="408.75" width="32" height="32"/>
  <object id="28" gid="52" x="915.75" y="449" width="32" height="32"/>
  <object id="29" gid="52" x="925.5" y="421.25" width="32" height="32"/>
  <object id="30" gid="51" x="905" y="456.75" width="32" height="32"/>
  <object id="31" gid="51" x="941.5" y="437.25" width="32" height="32"/>
  <object id="32" gid="51" x="905.75" y="513.25" width="32" height="32"/>
  <object id="33" gid="53" x="880.75" y="527.25" width="32" height="32"/>
  <object id="34" gid="53" x="912.75" y="551.75" width="32" height="32"/>
  <object id="35" gid="53" x="930" y="559" width="32" height="32"/>
  <object id="36" gid="54" x="1057.5" y="551" width="32" height="32"/>
  <object id="37" gid="52" x="1070" y="558" width="32" height="32"/>
  <object id="38" gid="52" x="1134" y="526.75" width="32" height="32"/>
  <object id="39" gid="54" x="1135.5" y="431.25" width="32" height="32"/>
  <object id="40" gid="53" x="1109.75" y="429.75" width="32" height="32"/>
  <object id="41" gid="53" x="1122" y="445.5" width="32" height="32"/>
  <object id="42" gid="53" x="1121.75" y="481.5" width="32" height="32"/>
  <object id="43" gid="52" x="1100.25" y="418" width="32" height="32"/>
  <object id="44" gid="51" x="1124" y="397" width="32" height="32"/>
  <object id="45" gid="51" x="1104" y="400.75" width="32" height="32"/>
  <object id="46" gid="51" x="911.333" y="398" width="32" height="32"/>
  <object id="47" gid="54" x="1675.33" y="999.333" width="32" height="32"/>
  <object id="48" gid="54" x="1683.33" y="974" width="32" height="32"/>
  <object id="51" gid="54" x="1691.33" y="958.667" width="32" height="32"/>
  <object id="52" gid="54" x="1724" y="932.667" width="32" height="32"/>
  <object id="53" gid="54" x="1754.67" y="950" width="32" height="32"/>
  <object id="54" gid="54" x="1773.33" y="913.333" width="32" height="32"/>
  <object id="55" gid="54" x="1820.67" y="902" width="32" height="32"/>
  <object id="56" gid="54" x="1894" y="903.333" width="32" height="32"/>
  <object id="57" gid="54" x="1934.67" y="935.333" width="32" height="32"/>
  <object id="58" gid="54" x="1960" y="981.333" width="32" height="32"/>
  <object id="59" gid="54" x="1946.67" y="1005.33" width="32" height="32"/>
  <object id="60" gid="54" x="1930" y="950.667" width="32" height="32"/>
  <object id="61" gid="54" x="1864.67" y="902" width="32" height="32"/>
  <object id="62" gid="54" x="1865.33" y="837.333" width="32" height="32"/>
  <object id="63" gid="54" x="1851.33" y="806.667" width="32" height="32"/>
  <object id="64" gid="54" x="1861.33" y="768" width="32" height="32"/>
  <object id="65" gid="54" x="1880.67" y="738" width="32" height="32"/>
  <object id="66" gid="54" x="1935.33" y="753.333" width="32" height="32"/>
  <object id="67" gid="54" x="1968" y="734.667" width="32" height="32"/>
  <object id="68" gid="54" x="1994.67" y="912" width="32" height="32"/>
  <object id="69" gid="54" x="1964" y="916" width="32" height="32"/>
  <object id="70" gid="54" x="1918.67" y="886.667" width="32" height="32"/>
  <object id="71" gid="54" x="1897.33" y="862" width="32" height="32"/>
  <object id="72" gid="53" x="1931.33" y="898" width="32" height="32"/>
  <object id="73" gid="53" x="1947.33" y="909.333" width="32" height="32"/>
  <object id="74" gid="53" x="1908" y="873.333" width="32" height="32"/>
  <object id="75" gid="53" x="1884.67" y="850" width="32" height="32"/>
  <object id="76" gid="53" x="1978.67" y="914" width="32" height="32"/>
  <object id="77" gid="53" x="1880.67" y="840.667" width="32" height="32"/>
  <object id="78" gid="53" x="1860.67" y="813.333" width="32" height="32"/>
  <object id="79" gid="53" x="1866" y="787.333" width="32" height="32"/>
  <object id="80" gid="53" x="1874" y="758" width="32" height="32"/>
  <object id="81" gid="53" x="1902" y="744.667" width="32" height="32"/>
  <object id="82" gid="53" x="1932.67" y="767.333" width="32" height="32"/>
  <object id="83" gid="53" x="1956.67" y="749.333" width="32" height="32"/>
  <object id="84" gid="53" x="1994.67" y="752" width="32" height="32"/>
  <object id="85" gid="53" x="1803.33" y="907.333" width="32" height="32"/>
  <object id="86" gid="53" x="1769.33" y="929.333" width="32" height="32"/>
  <object id="87" gid="53" x="1769.33" y="953.333" width="32" height="32"/>
  <object id="88" gid="53" x="1739.33" y="947.333" width="32" height="32"/>
  <object id="89" gid="53" x="1706" y="959.333" width="32" height="32"/>
  <object id="90" gid="53" x="1680.67" y="987.333" width="32" height="32"/>
  <object id="91" gid="53" x="1712.67" y="996" width="32" height="32"/>
  <object id="92" gid="53" x="1774.67" y="994" width="32" height="32"/>
  <object id="93" gid="53" x="1800.67" y="970.667" width="32" height="32"/>
  <object id="94" gid="53" x="1843.33" y="980.667" width="32" height="32"/>
  <object id="95" gid="53" x="1877.33" y="974" width="32" height="32"/>
  <object id="96" gid="53" x="1868" y="990.667" width="32" height="32"/>
  <object id="97" gid="53" x="1864.67" y="973.333" width="32" height="32"/>
  <object id="98" gid="53" x="1938.67" y="971.333" width="32" height="32"/>
  <object id="99" gid="53" x="1936" y="990" width="32" height="32"/>
  <object id="100" gid="53" x="1910.67" y="934" width="32" height="32"/>
  <object id="101" gid="53" x="1898.67" y="918.667" width="32" height="32"/>
  <object id="102" gid="52" x="1843.33" y="882.667" width="32" height="32"/>
  <object id="103" gid="52" x="1747.33" y="895.333" width="32" height="32"/>
  <object id="104" gid="52" x="1776" y="808" width="32" height="32"/>
  <object id="105" gid="52" x="1631.33" y="920" width="32" height="32"/>
  <object id="106" gid="52" x="1589.33" y="974.667" width="32" height="32"/>
  <object id="107" gid="52" x="1496" y="972" width="32" height="32"/>
  <object id="108" gid="52" x="1636" y="852.667" width="32" height="32"/>
  <object id="109" gid="52" x="1694.67" y="838.667" width="32" height="32"/>
  <object id="110" gid="52" x="1670" y="924.667" width="32" height="32"/>
  <object id="111" gid="52" x="1568" y="880.667" width="32" height="32"/>
  <object id="112" gid="52" x="1448" y="986" width="32" height="32"/>
  <object id="113" gid="52" x="1682" y="764.667" width="32" height="32"/>
  <object id="114" gid="52" x="1637.33" y="790.667" width="32" height="32"/>
  <object id="115" gid="52" x="1762.67" y="789.333" width="32" height="32"/>
  <object id="116" gid="52" x="1833.33" y="699.333" width="32" height="32"/>
  <object id="117" gid="52" x="1952.67" y="655.333" width="32" height="32"/>
  <object id="118" gid="52" x="1974.67" y="604" width="32" height="32"/>
  <object id="119" gid="52" x="1879.33" y="647.333" width="32" height="32"/>
  <object id="120" gid="52" x="1900.67" y="726" width="32" height="32"/>
  <object id="121" gid="52" x="1799.33" y="694.667" width="32" height="32"/>
  <object id="122" gid="52" x="1778.67" y="765.333" width="32" height="32"/>
  <object id="123" gid="54" x="1612.67" y="924.667" width="32" height="32"/>
  <object id="124" gid="54" x="1542.67" y="964.667" width="32" height="32"/>
  <object id="125" gid="54" x="1452.67" y="970.667" width="32" height="32"/>
  <object id="126" gid="54" x="1558" y="902.667" width="32" height="32"/>
  <object id="127" gid="53" x="1526" y="997.333" width="32" height="32"/>
  <object id="128" gid="53" x="1609.33" y="898" width="32" height="32"/>
  <object id="130" gid="53" x="1691.33" y="874" width="32" height="32"/>
  <object id="131" gid="53" x="1596" y="874.667" width="32" height="32"/>
  <object id="132" gid="53" x="1536.67" y="875.333" width="32" height="32"/>
  <object id="133" gid="53" x="1472.67" y="952.667" width="32" height="32"/>
  <object id="134" gid="54" x="1613.33" y="880.667" width="32" height="32"/>
  <object id="135" gid="54" x="1726" y="875.333" width="32" height="32"/>
  <object id="136" gid="54" x="1803.33" y="781.333" width="32" height="32"/>
  <object id="137" gid="54" x="1674" y="754.667" width="32" height="32"/>
  <object id="138" gid="54" x="1632.67" y="804.667" width="32" height="32"/>
  <object id="139" gid="54" x="1601.33" y="789.333" width="32" height="32"/>
  <object id="140" gid="54" x="1605.33" y="759.333" width="32" height="32"/>
  <object id="141" gid="54" x="1580.67" y="798" width="32" height="32"/>
  <object id="142" gid="54" x="1577.33" y="854" width="32" height="32"/>
  <object id="143" gid="54" x="1516" y="866.667" width="32" height="32"/>
  <object id="144" gid="54" x="1480" y="923.333" width="32" height="32"/>
  <object id="145" gid="54" x="1440.67" y="962.667" width="32" height="32"/>
  <object id="146" gid="54" x="1405.33" y="987.333" width="32" height="32"/>
  <object id="147" gid="54" x="1384" y="963.333" width="32" height="32"/>
  <object id="148" gid="54" x="1611.33" y="744" width="32" height="32"/>
  <object id="149" gid="54" x="1666" y="721.333" width="32" height="32"/>
  <object id="150" gid="54" x="1754" y="669.333" width="32" height="32"/>
  <object id="151" gid="54" x="1811.33" y="619.333" width="32" height="32"/>
  <object id="152" gid="54" x="1852.67" y="624.667" width="32" height="32"/>
  <object id="153" gid="54" x="1831.33" y="673.333" width="32" height="32"/>
  <object id="154" gid="54" x="1782.67" y="648.667" width="32" height="32"/>
  <object id="155" gid="54" x="1730.67" y="691.333" width="32" height="32"/>
  <object id="156" gid="54" x="1705.33" y="727.333" width="32" height="32"/>
  <object id="157" gid="54" x="1715.33" y="780" width="32" height="32"/>
  <object id="158" gid="54" x="1724" y="844.667" width="32" height="32"/>
  <object id="159" gid="54" x="1817.33" y="845.333" width="32" height="32"/>
  <object id="160" gid="54" x="1766" y="826" width="32" height="32"/>
  <object id="161" gid="54" x="1796.67" y="684.667" width="32" height="32"/>
  <object id="162" gid="54" x="1766.67" y="725.333" width="32" height="32"/>
  <object id="163" gid="54" x="1866" y="720" width="32" height="32"/>
  <object id="164" gid="54" x="1918.67" y="678.667" width="32" height="32"/>
  <object id="165" gid="54" x="1906.67" y="598" width="32" height="32"/>
  <object id="166" gid="54" x="1872.67" y="596" width="32" height="32"/>
  <object id="167" gid="54" x="1939.33" y="598.667" width="32" height="32"/>
  <object id="168" gid="54" x="1956.67" y="588.667" width="32" height="32"/>
  <object id="169" gid="54" x="1986.67" y="556.667" width="32" height="32"/>
  <object id="170" gid="54" x="1995.33" y="647.333" width="32" height="32"/>
  <object id="171" gid="54" x="1971.33" y="703.333" width="32" height="32"/>
  <object id="172" gid="54" x="1917.33" y="704.667" width="32" height="32"/>
  <object id="173" gid="54" x="160" y="192" width="32" height="32"/>
  <object id="174" gid="54" x="71.5" y="230.5" width="32" height="32"/>
  <object id="175" gid="54" x="68" y="279" width="32" height="32"/>
  <object id="176" gid="54" x="113.5" y="227" width="32" height="32"/>
  <object id="177" gid="54" x="43" y="259" width="32" height="32"/>
  <object id="178" gid="54" x="28.5" y="274.5" width="32" height="32"/>
  <object id="179" gid="54" x="96" y="204.5" width="32" height="32"/>
  <object id="180" gid="54" x="147" y="216.5" width="32" height="32"/>
  <object id="181" gid="54" x="199.5" y="154.5" width="32" height="32"/>
  <object id="182" gid="54" x="174.5" y="176.5" width="32" height="32"/>
  <object id="183" gid="54" x="225" y="133" width="32" height="32"/>
  <object id="184" gid="54" x="226" y="163.5" width="32" height="32"/>
  <object id="185" gid="54" x="255" y="105" width="32" height="32"/>
  <object id="186" gid="54" x="282" y="116.5" width="32" height="32"/>
  <object id="187" gid="54" x="294.5" y="71.5" width="32" height="32"/>
  <object id="188" gid="54" x="272.5" y="76.5" width="32" height="32"/>
  <object id="190" gid="53" x="293" y="91" width="32" height="32"/>
  <object id="191" gid="53" x="208" y="96" width="32" height="32"/>
  <object id="192" gid="53" x="159" y="127.5" width="32" height="32"/>
  <object id="193" gid="53" x="143" y="145" width="32" height="32"/>
  <object id="194" gid="53" x="96" y="170.5" width="32" height="32"/>
  <object id="195" gid="53" x="49.5" y="140" width="32" height="32"/>
  <object id="196" gid="53" x="114.5" y="88" width="32" height="32"/>
  <object id="197" gid="53" x="138.5" y="113.5" width="32" height="32"/>
  <object id="198" gid="53" x="85" y="134.5" width="32" height="32"/>
  <object id="199" gid="53" x="64.5" y="190.5" width="32" height="32"/>
  <object id="200" gid="53" x="27" y="173" width="32" height="32"/>
  <object id="201" gid="53" x="60" y="76" width="32" height="32"/>
  <object id="202" gid="53" x="29.5" y="93.5" width="32" height="32"/>
  <object id="203" gid="53" x="66" y="111" width="32" height="32"/>
  <object id="204" gid="53" x="126" y="63.5" width="32" height="32"/>
  <object id="205" gid="53" x="220.5" y="79" width="32" height="32"/>
  <object id="206" gid="53" x="169" y="77" width="32" height="32"/>
  <object id="207" gid="54" x="174.5" y="107" width="32" height="32"/>
  <object id="208" gid="52" x="70.5" y="185" width="32" height="32"/>
  <object id="209" gid="52" x="39.5" y="212" width="32" height="32"/>
  <object id="210" gid="52" x="43" y="127.5" width="32" height="32"/>
  <object id="211" gid="51" x="118.5" y="110.5" width="32" height="32"/>
  <object id="212" gid="51" x="39" y="80" width="32" height="32"/>
  <object id="214" gid="51" x="85" y="68.5" width="32" height="32"/>
  <object id="215" gid="51" x="236.5" y="58.5" width="32" height="32"/>
  <object id="216" gid="51" x="258.5" y="81.5" width="32" height="32"/>
  <object id="217" gid="51" x="168" y="116.5" width="32" height="32"/>
  <object id="218" gid="51" x="158" y="160" width="32" height="32"/>
  <object id="219" gid="54" x="539.5" y="795.5" width="32" height="32"/>
  <object id="220" gid="54" x="436" y="816" width="32" height="32"/>
  <object id="221" gid="54" x="400" y="752.5" width="32" height="32"/>
  <object id="222" gid="54" x="474.5" y="792.5" width="32" height="32"/>
  <object id="223" gid="54" x="431.5" y="780.5" width="32" height="32"/>
  <object id="224" gid="53" x="489.818" y="752.182" width="32" height="32"/>
  <object id="226" gid="51" x="492.909" y="744.727" width="32" height="32"/>
  <object id="227" gid="54" x="512.364" y="802.364" width="32" height="32"/>
  <object id="228" gid="54" x="578.182" y="738.364" width="32" height="32"/>
  <object id="229" gid="53" x="562.727" y="759.818" width="32" height="32"/>
  <object id="230" gid="53" x="530.182" y="735.273" width="32" height="32"/>
  <object id="231" gid="53" x="537.455" y="704" width="32" height="32"/>
  <object id="233" gid="52" x="533.636" y="765.455" width="32" height="32"/>
  <object id="234" gid="52" x="501.455" y="702.909" width="32" height="32"/>
  <object id="235" gid="52" x="470.545" y="711.455" width="32" height="32"/>
  <object id="238" gid="53" x="463.091" y="726.545" width="32" height="32"/>
  <object id="239" gid="53" x="434.545" y="711.818" width="32" height="32"/>
  <object id="240" gid="53" x="409.091" y="726.727" width="32" height="32"/>
  <object id="241" gid="54" x="563.636" y="716.909" width="32" height="32"/>
  <object id="242" gid="54" x="567.636" y="783.818" width="32" height="32"/>
  <object id="243" gid="54" x="512" y="678.667" width="32" height="32"/>
  <object id="244" gid="54" x="458.667" y="674" width="32" height="32"/>
  <object id="245" gid="54" x="406.667" y="711.333" width="32" height="32"/>
  <object id="246" gid="54" x="366.667" y="760.667" width="32" height="32"/>
  <object id="247" gid="54" x="344.667" y="746" width="32" height="32"/>
  <object id="248" gid="54" x="341.333" y="794.667" width="32" height="32"/>
  <object id="249" gid="54" x="508" y="824" width="32" height="32"/>
  <object id="250" gid="54" x="596" y="774.667" width="32" height="32"/>
  <object id="251" gid="54" x="586.667" y="695.333" width="32" height="32"/>
  <object id="252" gid="54" x="549.333" y="670" width="32" height="32"/>
  <object id="253" gid="54" x="521.333" y="650" width="32" height="32"/>
  <object id="254" gid="54" x="1489.25" y="206.5" width="32" height="32"/>
  <object id="255" gid="53" x="1427.75" y="204.25" width="32" height="32"/>
  <object id="256" gid="52" x="1453.75" y="169.75" width="32" height="32"/>
  <object id="257" gid="51" x="1476.25" y="173" width="32" height="32"/>
  <object id="258" gid="51" x="1456.5" y="179.5" width="32" height="32"/>
  <object id="259" gid="51" x="1439.75" y="173.75" width="32" height="32"/>
  <object id="260" gid="54" x="1453.25" y="207.75" width="32" height="32"/>
  <object id="261" gid="54" x="1415" y="185.75" width="32" height="32"/>
  <object id="262" gid="54" x="1410.5" y="163" width="32" height="32"/>
  <object id="265" gid="54" x="1423" y="144.75" width="32" height="32"/>
  <object id="266" gid="52" x="1420" y="172.75" width="32" height="32"/>
  <object id="268" gid="53" x="1472.25" y="209.5" width="32" height="32"/>
  <object id="269" gid="53" x="1492" y="184" width="32" height="32"/>
  <object id="270" gid="54" x="1493" y="168.25" width="32" height="32"/>
  <object id="271" gid="51" x="1491.5" y="194.5" width="32" height="32"/>
  <object id="272" gid="51" x="1486.75" y="151.25" width="32" height="32"/>
  <object id="273" gid="54" x="1487.25" y="140.5" width="32" height="32"/>
  <object id="274" gid="53" x="1472.75" y="138.5" width="32" height="32"/>
  <object id="275" gid="54" x="1454" y="140.75" width="32" height="32"/>
  <object id="276" gid="52" x="1438.25" y="138.25" width="32" height="32"/>
  <object id="277" gid="52" x="1382" y="203.25" width="32" height="32"/>
  <object id="278" gid="54" x="1362" y="199.75" width="32" height="32"/>
  <object id="279" gid="53" x="1391.5" y="236.75" width="32" height="32"/>
  <object id="280" gid="54" x="1403.33" y="215" width="32" height="32"/>
  <object id="281" gid="53" x="1445" y="229.333" width="32" height="32"/>
  <object id="282" gid="53" x="1422" y="236.333" width="32" height="32"/>
  <object id="283" gid="53" x="1501" y="233.333" width="32" height="32"/>
  <object id="284" gid="53" x="1468.67" y="227" width="32" height="32"/>
  <object id="285" gid="53" x="1527.33" y="220" width="32" height="32"/>
  <object id="286" gid="53" x="1515.33" y="198.667" width="32" height="32"/>
  <object id="287" gid="52" x="1536.33" y="185" width="32" height="32"/>
  <object id="288" gid="54" x="1551.67" y="176.333" width="32" height="32"/>
  <object id="289" gid="54" x="1363.33" y="155.333" width="32" height="32"/>
  <object id="290" gid="54" x="1357" y="177" width="32" height="32"/>
  <object id="291" gid="53" x="1386" y="143" width="32" height="32"/>
  <object id="292" gid="52" x="1398.33" y="110.333" width="32" height="32"/>
  <object id="293" gid="52" x="1738" y="342.667" width="32" height="32"/>
  <object id="294" gid="51" x="1431" y="112" width="32" height="32"/>
  <object id="295" gid="51" x="1396.33" y="122.667" width="32" height="32"/>
  <object id="296" gid="54" x="1416.33" y="108.667" width="32" height="32"/>
  <object id="297" gid="54" x="1474" y="111.333" width="32" height="32"/>
  <object id="298" gid="54" x="1448.33" y="112" width="32" height="32"/>
  <object id="299" gid="54" x="1522.67" y="147" width="32" height="32"/>
  <object id="300" gid="54" x="1548" y="236" width="32" height="32"/>
  <object id="301" gid="54" x="976" y="541.333" width="32" height="32"/>
  <object id="302" gid="54" x="1073.33" y="481.333" width="32" height="32"/>
  <object id="303" gid="54" x="994.667" y="405.333" width="32" height="32"/>
  <object id="305" gid="54" x="1312" y="674.667" width="32" height="32"/>
  <object id="306" gid="54" x="1345.33" y="669.333" width="32" height="32"/>
  <object id="307" gid="54" x="1379.33" y="684" width="32" height="32"/>
  <object id="308" gid="54" x="1329.33" y="690.667" width="32" height="32"/>
  <object id="309" gid="54" x="1372" y="661.333" width="32" height="32"/>
  <object id="310" gid="54" x="1384" y="626.667" width="32" height="32"/>
  <object id="311" gid="54" x="1370.67" y="610.667" width="32" height="32"/>
  <object id="312" gid="54" x="1394.67" y="662" width="32" height="32"/>
  <object id="314" gid="54" x="687" y="610" width="32" height="32"/>
  <object id="315" gid="54" x="744" y="652" width="32" height="32"/>
  <object id="316" gid="54" x="729" y="624" width="32" height="32"/>
  <object id="317" gid="54" x="699" y="644" width="32" height="32"/>
  <object id="318" gid="54" x="702" y="630" width="32" height="32"/>
  <object id="319" gid="54" x="731" y="672" width="32" height="32"/>
  <object id="320" gid="54" x="937" y="672" width="32" height="32"/>
  <object id="321" gid="54" x="908" y="651" width="32" height="32"/>
  <object id="322" gid="54" x="945" y="642" width="32" height="32"/>
  <object id="323" gid="54" x="916" y="622" width="32" height="32"/>
  <object id="325" gid="53" x="1309.33" y="848" width="32" height="32"/>
  <object id="328" gid="53" x="1374.67" y="776" width="32" height="32"/>
  <object id="329" gid="53" x="1517.33" y="692" width="32" height="32"/>
  <object id="330" gid="53" x="1709.33" y="642.667" width="32" height="32"/>
  <object id="331" gid="53" x="1560" y="490.667" width="32" height="32"/>
  <object id="332" gid="53" x="1482.67" y="357.333" width="32" height="32"/>
  <object id="333" gid="53" x="1385.33" y="390.667" width="32" height="32"/>
  <object id="334" gid="53" x="1453.33" y="498.667" width="32" height="32"/>
  <object id="335" gid="53" x="1336" y="304" width="32" height="32"/>
  <object id="336" gid="53" x="1098.67" y="576" width="32" height="32"/>
  <object id="337" gid="53" x="1013.33" y="298.667" width="32" height="32"/>
  <object id="338" gid="53" x="814.667" y="420" width="32" height="32"/>
  <object id="339" gid="53" x="741.333" y="237.333" width="32" height="32"/>
  <object id="340" gid="53" x="561.333" y="574.667" width="32" height="32"/>
  <object id="341" gid="53" x="684" y="782.667" width="32" height="32"/>
  <object id="342" gid="53" x="630.667" y="904" width="32" height="32"/>
  <object id="343" gid="53" x="330.667" y="920" width="32" height="32"/>
  <object id="344" gid="53" x="197.333" y="784" width="32" height="32"/>
  <object id="345" gid="53" x="353.333" y="610.667" width="32" height="32"/>
  <object id="346" gid="53" x="564" y="497.333" width="32" height="32"/>
  <object id="347" gid="53" x="514.667" y="274.667" width="32" height="32"/>
  <object id="348" gid="53" x="377.333" y="208" width="32" height="32"/>
  <object id="349" gid="53" x="546.667" y="105.333" width="32" height="32"/>
  <object id="350" gid="53" x="752" y="106.667" width="32" height="32"/>
  <object id="351" gid="53" x="712" y="192" width="32" height="32"/>
  <object id="352" gid="53" x="557.333" y="158.667" width="32" height="32"/>
  <object id="353" gid="53" x="453.333" y="230.667" width="32" height="32"/>
  <object id="354" gid="53" x="472" y="340" width="32" height="32"/>
  <object id="355" gid="53" x="576" y="377.333" width="32" height="32"/>
  <object id="356" gid="53" x="973.333" y="109.333" width="32" height="32"/>
  <object id="357" gid="53" x="1120" y="180" width="32" height="32"/>
  <object id="358" gid="53" x="1133.33" y="308" width="32" height="32"/>
  <object id="359" gid="53" x="1194.67" y="741.333" width="32" height="32"/>
  <object id="360" gid="53" x="1258.67" y="857.333" width="32" height="32"/>
  <object id="361" gid="53" x="849.333" y="805.333" width="32" height="32"/>
  <object id="362" gid="53" x="822.667" y="893.333" width="32" height="32"/>
  <object id="363" gid="53" x="745.333" y="917.333" width="32" height="32"/>
  <object id="366" gid="53" x="1862.67" y="517.333" width="32" height="32"/>
  <object id="368" gid="53" x="1718.67" y="570.667" width="32" height="32"/>
  <object id="369" gid="53" x="1665.33" y="194.667" width="32" height="32"/>
  <object id="370" gid="53" x="1249.33" y="224" width="32" height="32"/>
 </objectgroup>
 <layer id="5" name="collisions" width="64" height="32">
  <data encoding="csv">
21,21,21,21,21,21,21,21,21,21,21,21,21,21,21,21,21,21,21,21,21,21,21,21,21,21,21,21,21,21,21,21,21,21,21,21,21,21,21,21,21,21,21,21,21,21,21,21,21,21,21,21,21,21,21,21,21,21,21,21,21,21,21,21,
21,0,0,0,0,0,0,0,0,0,0,0,0,0,0,0,0,0,0,0,0,0,0,0,0,0,0,0,0,0,0,0,0,0,0,0,0,0,0,0,0,0,0,0,0,0,0,0,0,0,0,0,0,0,0,0,0,0,0,0,0,0,0,21,
21,0,0,0,0,0,0,0,0,0,0,0,0,0,0,0,0,0,0,0,0,0,0,0,0,0,0,0,0,0,0,0,0,0,0,0,0,0,0,0,0,0,0,0,0,0,0,0,0,0,0,0,0,0,0,0,0,0,0,0,0,0,0,21,
21,0,0,0,0,0,0,0,0,0,0,0,0,0,0,0,0,0,0,0,0,0,0,0,0,0,0,0,0,0,0,0,0,0,0,0,21,21,0,0,0,0,0,0,0,0,0,0,0,0,0,0,0,0,0,0,0,0,0,0,0,0,0,21,
21,0,0,0,0,0,0,0,0,0,0,0,0,0,0,0,0,0,0,0,0,0,0,0,0,0,0,0,0,0,0,0,0,0,0,0,21,21,0,0,0,0,0,0,0,0,0,0,0,0,0,0,0,0,0,0,0,0,0,0,0,0,0,21,
21,0,0,0,0,0,0,0,0,0,0,0,0,0,0,0,0,0,0,0,0,0,0,0,0,0,0,0,0,0,0,0,0,0,0,0,0,0,0,0,0,0,0,0,0,0,0,0,0,0,0,0,0,0,0,0,0,0,0,0,0,0,0,21,
21,0,0,0,0,0,0,0,0,0,0,0,0,0,0,0,0,0,0,0,0,0,0,0,0,0,0,0,0,0,21,0,0,0,0,0,0,0,0,0,0,0,0,0,0,0,0,0,0,0,0,0,0,0,0,0,0,0,0,0,0,0,0,21,
21,0,0,0,0,0,0,0,0,0,0,0,0,0,0,0,0,0,0,0,0,0,0,0,0,0,21,21,21,21,21,21,0,0,0,0,0,0,0,0,0,0,0,0,0,0,0,0,0,0,0,0,0,0,0,0,0,0,0,0,0,0,0,21,
21,0,0,0,0,0,0,0,0,0,0,0,0,0,0,0,0,0,0,0,0,0,0,0,0,21,21,21,21,21,21,21,0,0,0,0,0,0,0,0,0,0,0,0,0,0,0,0,0,0,0,21,21,0,0,0,0,0,0,0,0,0,0,21,
21,0,0,0,0,0,0,0,0,0,0,0,0,0,0,0,0,0,0,0,21,21,21,0,0,21,21,21,21,0,0,0,0,0,0,0,0,21,21,0,0,0,0,0,0,0,0,0,0,0,0,21,21,21,21,0,0,0,0,0,0,0,0,21,
21,0,0,0,0,0,0,0,0,0,0,0,0,0,0,0,0,0,0,0,21,21,21,0,0,0,0,0,0,0,0,0,0,0,0,0,0,21,21,21,0,0,0,0,0,0,0,0,0,0,0,21,21,21,21,0,0,0,0,0,0,0,0,21,
21,0,0,0,0,0,0,0,0,0,0,0,0,21,21,0,0,0,0,0,0,21,21,0,0,0,0,0,0,0,0,0,0,0,0,0,0,0,21,21,0,0,0,0,0,0,0,0,0,0,0,21,21,21,21,0,0,0,0,0,0,0,0,21,
21,0,0,0,0,0,0,0,0,0,0,0,0,21,21,0,0,0,0,0,0,0,0,0,0,0,0,0,0,0,0,0,0,0,0,0,0,0,21,21,0,0,0,0,0,0,0,0,0,0,0,0,21,21,21,0,0,0,0,0,0,0,0,21,
21,0,0,0,0,0,0,0,0,0,0,0,0,0,0,0,0,0,0,0,0,0,0,0,0,0,0,0,0,0,0,0,0,0,0,0,0,0,0,0,0,0,0,0,0,0,0,0,0,0,0,0,0,0,0,0,0,0,0,0,0,0,0,21,
21,0,0,0,0,0,0,0,0,0,0,0,0,0,0,0,0,0,0,0,0,0,0,21,21,0,0,0,0,0,0,0,0,0,0,0,0,0,0,0,0,0,0,0,0,0,0,0,0,0,0,0,0,0,0,0,0,0,0,0,0,0,0,21,
21,0,0,0,0,0,0,0,0,0,0,0,0,0,0,0,0,0,0,0,0,0,21,21,21,0,0,0,0,0,0,0,0,0,0,0,0,0,0,0,0,21,21,21,0,0,0,0,0,0,0,0,0,0,0,0,0,0,0,0,0,0,0,21,
21,0,0,0,0,0,0,0,0,0,0,0,0,0,0,0,0,0,0,0,0,0,21,21,21,0,0,0,0,0,0,0,0,0,0,0,0,0,0,0,0,21,21,21,0,0,0,0,0,0,0,0,0,0,0,0,0,0,0,0,0,0,0,21,
21,0,0,0,0,0,0,0,0,0,0,0,0,0,0,0,0,0,0,0,0,0,21,21,21,0,0,0,0,0,0,0,0,0,0,0,0,0,0,0,0,21,21,21,0,0,0,0,0,0,0,0,0,0,0,0,0,0,0,0,0,0,0,21,
21,0,0,0,0,0,0,0,0,0,0,0,0,21,21,0,0,0,0,0,0,0,0,0,0,0,0,0,0,0,0,0,0,0,0,0,0,0,0,0,0,21,21,0,0,0,0,0,0,0,0,0,0,0,0,0,0,0,0,0,0,0,0,21,
21,0,0,0,0,0,0,0,0,0,0,0,0,21,21,0,0,0,0,0,0,0,0,0,0,0,0,0,0,0,0,0,0,0,0,0,0,0,0,0,0,21,21,0,0,0,0,0,0,0,0,0,0,0,0,0,0,0,0,0,0,0,0,21,
21,0,0,0,0,0,0,0,0,0,0,0,21,21,0,0,0,0,0,0,0,0,0,0,0,0,0,0,0,0,21,21,21,0,0,0,0,0,0,0,0,0,0,0,0,0,0,0,0,0,0,0,0,0,0,0,0,0,0,0,0,0,0,21,
21,0,0,0,0,0,0,0,0,0,0,0,0,0,0,0,0,0,0,0,0,0,0,0,0,0,0,0,0,0,21,21,21,21,0,0,0,0,0,0,0,0,0,0,0,0,0,0,0,0,0,0,0,0,0,0,0,0,0,0,0,0,0,21,
21,0,0,0,0,0,0,0,0,0,0,0,0,0,0,0,0,0,0,0,0,0,0,0,0,0,0,0,0,0,21,21,21,21,0,0,0,0,0,0,0,0,0,0,0,0,0,0,0,0,0,0,0,0,0,0,0,0,0,0,0,0,0,21,
21,0,0,0,0,0,0,0,0,0,0,0,0,0,0,0,0,0,0,0,0,0,0,0,0,0,0,0,0,0,0,0,0,0,0,0,0,0,0,0,0,0,0,0,0,21,21,0,0,0,0,0,0,0,0,0,0,0,0,0,0,0,0,21,
21,0,0,0,0,0,0,0,0,0,0,0,0,0,0,0,0,0,0,0,0,0,0,0,0,0,0,0,0,0,0,0,0,0,0,0,0,0,0,0,0,0,0,0,0,21,21,0,0,0,0,0,0,0,0,0,0,0,0,0,0,0,0,21,
21,0,0,0,0,0,0,0,0,0,0,0,0,0,0,0,0,0,0,0,0,0,0,0,0,0,0,0,0,0,0,21,21,0,0,0,0,0,0,0,0,0,0,0,0,0,0,0,0,0,0,0,0,0,0,0,0,0,0,0,0,0,0,21,
21,0,0,0,0,0,0,0,0,0,0,0,0,0,0,0,0,0,0,0,0,0,0,0,0,0,0,0,0,0,21,21,21,0,0,0,0,0,0,0,0,0,0,0,0,0,0,0,0,0,0,0,0,0,0,0,0,0,0,0,0,0,0,21,
21,0,0,0,0,0,0,0,0,0,0,0,0,0,0,0,0,0,0,0,0,0,0,0,0,0,0,0,0,0,21,21,21,0,0,21,21,0,0,0,0,0,0,0,0,0,0,0,0,0,0,0,0,0,0,0,0,0,0,0,0,0,0,21,
21,0,0,0,0,0,0,0,0,0,0,0,0,0,0,0,0,0,0,0,0,0,0,0,0,0,0,0,0,21,21,21,0,0,0,21,21,0,0,0,0,0,0,0,0,0,0,0,0,0,0,0,0,0,0,0,0,0,0,0,0,0,0,21,
21,0,0,0,0,0,0,0,0,0,0,0,0,0,0,0,0,0,0,0,0,0,0,0,0,0,0,0,0,21,21,0,0,0,0,0,0,0,0,0,0,0,0,0,0,0,0,0,0,0,0,0,0,0,0,0,0,0,0,0,0,0,0,21,
21,0,0,0,0,0,0,0,0,0,0,0,0,0,0,0,0,0,0,0,0,0,0,0,0,0,0,0,0,0,0,0,0,0,0,0,0,0,0,0,0,0,0,0,0,0,0,0,0,0,0,0,0,0,0,0,0,0,0,0,0,0,0,21,
21,21,21,21,21,21,21,21,21,21,21,21,21,21,21,21,21,21,21,21,21,21,21,21,21,21,21,21,21,21,21,21,21,21,21,21,21,21,21,21,21,21,21,21,21,21,21,21,21,21,21,21,21,21,21,21,21,21,21,21,21,21,21,21
</data>
 </layer>
</map>
